assets/images/ADO.svg

<svg width="90" height="40" viewBox="0 0 90 40" fill="none" xmlns="http://www.w3.org/2000/svg">
<path d="M82.5016 8.81579C81.9099 8.81579 81.4317 9.30592 81.4317 9.91066C81.4317 10.5154 81.9107 11.0047 82.5016 11.0047C83.0925 11.0047 83.5714 10.5146 83.5714 9.91066C83.5714 9.3067 83.0925 8.81579 82.5016 8.81579ZM82.5016 10.7872C82.0287 10.7872 81.6459 10.3946 81.6459 9.91066C81.6459 9.42671 82.0287 9.03492 82.5016 9.03492C82.9745 9.03492 83.3565 9.42749 83.3565 9.91066C83.3565 10.3938 82.9737 10.7872 82.5016 10.7872Z" fill="#E11F2A"/>
<path d="M82.9646 9.63655C82.9646 9.3849 82.8186 9.2734 82.5273 9.2734H82.0552V10.5471H82.2428V9.99505H82.4577L82.7853 10.5471H82.9941L82.6431 9.98654C82.8254 9.96331 82.9654 9.8642 82.9654 9.63655H82.9646ZM82.2428 9.83168V9.43756H82.4986C82.6279 9.43756 82.7672 9.46698 82.7672 9.62494C82.7672 9.82006 82.6241 9.83168 82.4653 9.83168H82.2421H82.2428Z" fill="#E11F2A"/>
<path d="M23.3463 8.81579L6.42857 30.7093H19.903L23.3486 8.81579H23.3463Z" fill="#E11F2A"/>
<path d="M34.0417 8.81579H25.1334L21.6886 30.7093H30.4962L34.0417 8.81579Z" fill="#E11F2A"/>
<path d="M47.4185 8.81579L43.9737 30.7069C49.8419 30.6481 55.3621 25.7707 56.3366 19.7621C57.3149 13.7187 53.3223 8.81966 47.4185 8.81579Z" fill="#E11F2A"/>
<path d="M36.7155 8.81579L33.1708 30.7093H42.0829L42.0837 30.7077H42.1888L45.6337 8.81579H36.7155Z" fill="#E11F2A"/>
<path d="M70.5888 8.81579C64.682 8.81579 59.0982 13.7171 58.1177 19.7621C57.1424 25.7909 61.1116 30.6791 66.9911 30.7077V30.7147H67.1531L70.6009 8.81579H70.5888Z" fill="#E11F2A"/>
<path d="M72.3873 8.81579L68.9409 30.7054C74.8069 30.6434 80.3203 25.7684 81.2933 19.7614C82.2723 13.721 78.285 8.82431 72.3873 8.81579Z" fill="#E11F2A"/>
</svg>

<svg xmlns="http://www.w3.org/2000/svg" width="90" height="40" fill="none"><path fill="#E11F2A" d="M82.502 8.816c-.592 0-1.07.49-1.07 1.095 0 .604.479 1.094 1.07 1.094.59 0 1.07-.49 1.07-1.094s-.48-1.095-1.07-1.095m0 1.971a.866.866 0 0 1-.856-.876c0-.484.383-.876.856-.876s.855.392.855.876a.867.867 0 0 1-.855.876"/><path fill="#E11F2A" d="M82.965 9.637c0-.252-.146-.364-.438-.364h-.472v1.274h.188v-.552h.215l.327.552h.21l-.352-.56c.182-.024.322-.123.322-.35m-.722.195v-.394h.256c.129 0 .268.029.268.187 0 .195-.143.207-.302.207zM23.346 8.816 6.43 30.709h13.474l3.446-21.893zM34.042 8.816h-8.909L21.69 30.709h8.807zM47.419 8.816l-3.445 21.89c5.868-.058 11.388-4.935 12.363-10.944.978-6.043-3.015-10.942-8.919-10.946M36.716 8.816 33.17 30.709h8.912v-.001h.106l3.445-21.892zM70.589 8.816c-5.907 0-11.49 4.901-12.471 10.946-.976 6.029 2.994 10.917 8.873 10.946v.007h.162l3.448-21.9zM72.387 8.816l-3.446 21.89c5.866-.063 11.38-4.938 12.352-10.945.98-6.04-3.008-10.937-8.906-10.945"/></svg>
